assets/images/icons/src/gift.svg

<?xml version="1.0" encoding="utf-8"?>
<!-- Generated by IcoMoon.io -->
<!DOCTYPE svg PUBLIC "-//W3C//DTD SVG 1.1//EN" "http://www.w3.org/Graphics/SVG/1.1/DTD/svg11.dtd">
<svg version="1.1" xmlns="http://www.w3.org/2000/svg" xmlns:xlink="http://www.w3.org/1999/xlink" width="12" height="14" viewBox="0 0 12 14">
<path fill="#444444" d="M7.25 10.594v-5.594h-2.5v5.594q0 0.195 0.141 0.301t0.359 0.105h1.5q0.219 0 0.359-0.105t0.141-0.301zM3.687 4h1.523l-0.984-1.258q-0.203-0.242-0.539-0.242-0.312 0-0.531 0.219t-0.219 0.531 0.219 0.531 0.531 0.219zM9.062 3.25q0-0.312-0.219-0.531t-0.531-0.219q-0.336 0-0.539 0.242l-0.977 1.258h1.516q0.312 0 0.531-0.219t0.219-0.531zM12 5.25v2.5q0 0.109-0.070 0.18t-0.18 0.070h-0.75v3.25q0 0.312-0.219 0.531t-0.531 0.219h-8.5q-0.312 0-0.531-0.219t-0.219-0.531v-3.25h-0.75q-0.109 0-0.18-0.070t-0.070-0.18v-2.5q0-0.109 0.070-0.18t0.18-0.070h3.438q-0.727 0-1.238-0.512t-0.512-1.238 0.512-1.238 1.238-0.512q0.836 0 1.313 0.602l1 1.289 1-1.289q0.477-0.602 1.313-0.602 0.727 0 1.238 0.512t0.512 1.238-0.512 1.238-1.238 0.512h3.438q0.109 0 0.18 0.070t0.070 0.18z"></path>
</svg>

<svg xmlns="http://www.w3.org/2000/svg" width="12" height="14" viewBox="0 0 12 14"><path fill="#444" d="M7.25 10.594V5h-2.5v5.594q0 .195.141.301T5.25 11h1.5q.219 0 .359-.105t.141-.301zM3.687 4H5.21l-.984-1.258Q4.023 2.5 3.687 2.5q-.312 0-.531.219t-.219.531.219.531.531.219zm5.375-.75q0-.312-.219-.531T8.312 2.5q-.336 0-.539.242L6.796 4h1.516q.312 0 .531-.219t.219-.531zm2.938 2v2.5q0 .109-.07.18t-.18.07H11v3.25q0 .312-.219.531T10.25 12h-8.5q-.312 0-.531-.219T1 11.25V8H.25q-.109 0-.18-.07T0 7.75v-2.5q0-.109.07-.18T.25 5h3.438q-.727 0-1.238-.512T1.938 3.25t.512-1.238T3.688 1.5q.836 0 1.313.602l1 1.289 1-1.289Q7.478 1.5 8.314 1.5q.727 0 1.238.512t.512 1.238-.512 1.238T8.314 5h3.438q.109 0 .18.07t.07.18z"/></svg>
